src/assets/img/icomoon/chevronBold.svg

<?xml version="1.0" encoding="UTF-8" standalone="no"?>
<svg width="17px" height="28px" viewBox="0 0 17 28" version="1.1" xmlns="http://www.w3.org/2000/svg" xmlns:xlink="http://www.w3.org/1999/xlink">
    <!-- Generator: Sketch 50.2 (55047) - http://www.bohemiancoding.com/sketch -->
    <title>Shape</title>
    <desc>Created with Sketch.</desc>
    <defs></defs>
    <g id="Page-1" stroke="none" stroke-width="1" fill="none" fill-rule="evenodd">
        <g id="chevronBold" transform="translate(2.000000, 2.000000)" fill="#000000" fill-rule="nonzero">
            <path d="M9.17157288,12 L-1.41421356,1.41421356 C-2.19526215,0.633164979 -2.19526215,-0.633164979 -1.41421356,-1.41421356 C-0.633164979,-2.19526215 0.633164979,-2.19526215 1.41421356,-1.41421356 L14.8284271,12 L1.41421356,25.4142136 C0.633164979,26.1952621 -0.633164979,26.1952621 -1.41421356,25.4142136 C-2.19526215,24.633165 -2.19526215,23.366835 -1.41421356,22.5857864 L9.17157288,12 Z" id="Shape"></path>
        </g>
    </g>
</svg>

<?xml version="1.0" encoding="UTF-8"?>
<svg version="1.1" viewBox="0 0 17 28" xmlns="http://www.w3.org/2000/svg">
<g fill="none" fill-rule="evenodd">
<g transform="translate(2 2)" fill="#000" fill-rule="nonzero">
<path d="m9.1716 12-10.586-10.586c-0.78105-0.78105-0.78105-2.0474 0-2.8284 0.78105-0.78105 2.0474-0.78105 2.8284 0l13.414 13.414-13.414 13.414c-0.78105 0.78105-2.0474 0.78105-2.8284 0-0.78105-0.78105-0.78105-2.0474 0-2.8284l10.586-10.586z"/>
</g>
</g>
</svg>
